X:102
%%vocalfont Baskerville10Pro 11
%%pagewidth 7in
%%staffscale 0.95
T:The Bailiff's daughter of Islington
M:C
L:1/8
K:Bb
%%score 1 2
V:1 clef-treble
V:2 clef-bass octave=-1
V:1
D2|B2AB c2BA&D4^F4|[Gd]2[EG]2[D^F]2D2|[DB]2B (cd/e/dc)|
w:There was a* youth, and a well-belov'd youth, And he was~a Sq-*uire's**
V:2
z2|G,4A,4|B,2C2D2z2|G2[GB][EB]2[FA]2|
V:1
d6D2|B2ABc2(BA)&D4^F4|[Gd]2[EG]2[D^F]2D2|G2AB^F2D2&D2D2C4|[B,G]6||
w:son; He lov-ed the bai-liff's* daugh-ter dear, That liv-ed in Is-ling-ton.
V:2
B4[D^FA]4|[G,G]4A,4|B,2C2D3C|B,2G,2D4|G,6||

